Icons/rename_me_jetpack_joyride.svg

<svg viewBox="0 0 48 48" xmlns:xlink="http://www.w3.org/1999/xlink">
 <defs>
  <linearGradient id="0">
   <stop stop-opacity="0"/>
   <stop offset="1"/>
  </linearGradient>
  <linearGradient xlink:href="#0" id="1" gradientUnits="userSpaceOnUse" gradientTransform="translate(4e-7,-48)" y1="47" x2="0" y2="1"/>
  <clipPath id="2">
   <g transform="translate(0,-1004.3622)">
    <rect rx="4" y="1005.36" x="1" height="46" width="46" fill="#1890d0"/>
   </g>
  </clipPath>
  <clipPath id="3">
   <g transform="translate(0,-1004.3622)">
    <rect rx="4" y="1005.36" x="1" height="46" width="46" fill="#1890d0"/>
   </g>
  </clipPath>
 </defs>
 <g>
  <g transform="translate(0,-1004.3622)">
   <path d="m 5,1006.3622 c -2.216,0 -4,1.784 -4,4 l 0,37.25 c 0,2.216 1.784,4 4,4 l 38,0 c 2.216,0 4,-1.784 4,-4 l 0,-37.25 c 0,-2.216 -1.784,-4 -4,-4 l -38,0 z m -4,41.5 0,0.5 c 0,2.216 1.784,4 4,4 l 38,0 c 2.216,0 4,-1.784 4,-4 l 0,-0.5 c 0,2.216 -1.784,4 -4,4 l -38,0 c -2.216,0 -4,-1.784 -4,-4 z" opacity="0.02"/>
   <path d="m 1,1047.6122 0,0.25 c 0,2.216 1.784,4 4,4 l 38,0 c 2.216,0 4,-1.784 4,-4 l 0,-0.25 c 0,2.216 -1.784,4 -4,4 l -38,0 c -2.216,0 -4,-1.784 -4,-4 z" opacity="0.05"/>
   <rect width="46" height="46" x="1" y="1005.61" rx="4" opacity="0.1"/>
  </g>
 </g>
 <g>
  <g transform="translate(0,-1004.3622)">
   <rect rx="4" y="1005.36" x="1" height="46" width="46" fill="#6b7bda"/>
  </g>
 </g>
 <g>
  <rect transform="scale(1,-1)" width="46" height="46" x="1" y="-46.998" rx="4" opacity="0.1" fill="url(#1)"/>
 </g>
 <g>
  <g clip-path="url(#2)">
   <g opacity="0.1">
    <g>
     <path d="M 16.617188 27.003906 L 18.347656 28.003906 L 18.714844 29.371094 L 15.25 27.371094 Z M 16.617188 27.003906 "/>
     <path d="M 16.617188 27.003906 L 16.117188 27.871094 L 14.25 29.101562 L 17.714844 31.101562 L 17.847656 28.871094 L 18.347656 28.003906 Z M 16.617188 27.003906 "/>
     <path d="M 15.617188 28.734375 L 17.347656 29.734375 L 14.480469 32.699219 Z M 15.617188 28.734375 "/>
     <path d="M 34 16 C 34 17.65625 32.65625 19 31 19 C 29.34375 19 28 17.65625 28 16 C 28 14.34375 29.34375 13 31 13 C 32.65625 13 34 14.34375 34 16 Z M 34 16 "/>
     <path d="M 25 19 C 26 17 32 19 30 22 C 26 28 20 33 14 38 C 18 32 23 27 25 19 Z M 25 19 "/>
     <path d="M 29 22 C 35 22 35 22 35 27 L 34 27 C 34 23 34 23 29 23 Z M 29 22 "/>
     <path d="M 27 25 L 25 28 C 29 28 33 27 37 24 C 34 25 30 26 27 25 Z M 27 25 "/>
     <path d="M 21 16 C 22 14 24 15 23.699219 16.523438 L 19 27 L 17 26 Z M 21 16 "/>
    </g>
   </g>
  </g>
 </g>
 <g>
  <g clip-path="url(#3)">
   <g transform="translate(0,-1)">
    <g>
     <path d="M 16.617188 27.003906 L 18.347656 28.003906 L 18.714844 29.371094 L 15.25 27.371094 Z M 16.617188 27.003906 " fill="#f9f9f9"/>
     <path d="M 16.617188 27.003906 L 16.117188 27.871094 L 14.25 29.101562 L 17.714844 31.101562 L 17.847656 28.871094 L 18.347656 28.003906 Z M 16.617188 27.003906 " fill="#f9f9f9"/>
     <path d="M 15.617188 28.734375 L 17.347656 29.734375 L 14.480469 32.699219 Z M 15.617188 28.734375 " fill="#f9f9f9"/>
     <path d="M 34 16 C 34 17.65625 32.65625 19 31 19 C 29.34375 19 28 17.65625 28 16 C 28 14.34375 29.34375 13 31 13 C 32.65625 13 34 14.34375 34 16 Z M 34 16 " fill="#f9f9f9"/>
     <path d="M 25 19 C 26 17 32 19 30 22 C 26 28 20 33 14 38 C 18 32 23 27 25 19 Z M 25 19 " fill="#f9f9f9"/>
     <path d="M 29 22 C 35 22 35 22 35 27 L 34 27 C 34 23 34 23 29 23 Z M 29 22 " fill="#f9f9f9"/>
     <path d="M 27 25 L 25 28 C 29 28 33 27 37 24 C 34 25 30 26 27 25 Z M 27 25 " fill="#f9f9f9"/>
     <path d="M 21 16 C 22 14 24 15 23.699219 16.523438 L 19 27 L 17 26 Z M 21 16 " fill="#f9f9f9"/>
    </g>
   </g>
  </g>
 </g>
 <g>
  <g transform="translate(0,-1004.3622)">
   <path d="m 1,1043.3622 0,4 c 0,2.216 1.784,4 4,4 l 38,0 c 2.216,0 4,-1.784 4,-4 l 0,-4 c 0,2.216 -1.784,4 -4,4 l -38,0 c -2.216,0 -4,-1.784 -4,-4 z" opacity="0.1"/>
  </g>
 </g>
</svg>

<svg viewBox="0 0 48 48"><defs><linearGradient id="linearGradient3764" x1="1" x2="47" gradientUnits="userSpaceOnUse" gradientTransform="translate(-48.000001,0.00221467)"><stop stop-color="#5a6cd6" stop-opacity="1"/><stop offset="1" stop-color="#6b7bda" stop-opacity="1"/></linearGradient><clipPath id="clipPath-267021011"><g transform="translate(0,-1004.3622)"><rect rx="4" y="1005.36" x="1" height="46" width="46" fill="#1890d0"/></g></clipPath><clipPath id="clipPath-280880321"><g transform="translate(0,-1004.3622)"><rect rx="4" y="1005.36" x="1" height="46" width="46" fill="#1890d0"/></g></clipPath></defs><g><path d="m 1 43 l 0 0.25 c 0 2.216 1.784 4 4 4 l 38 0 c 2.216 0 4 -1.784 4 -4 l 0 -0.25 c 0 2.216 -1.784 4 -4 4 l -38 0 c -2.216 0 -4 -1.784 -4 -4 z m 0 0.5 l 0 0.5 c 0 2.216 1.784 4 4 4 l 38 0 c 2.216 0 4 -1.784 4 -4 l 0 -0.5 c 0 2.216 -1.784 4 -4 4 l -38 0 c -2.216 0 -4 -1.784 -4 -4 z" opacity="0.02"/><path d="m 1 43.25 l 0 0.25 c 0 2.216 1.784 4 4 4 l 38 0 c 2.216 0 4 -1.784 4 -4 l 0 -0.25 c 0 2.216 -1.784 4 -4 4 l -38 0 c -2.216 0 -4 -1.784 -4 -4 z" opacity="0.05"/><path d="m 1 43 l 0 0.25 c 0 2.216 1.784 4 4 4 l 38 0 c 2.216 0 4 -1.784 4 -4 l 0 -0.25 c 0 2.216 -1.784 4 -4 4 l -38 0 c -2.216 0 -4 -1.784 -4 -4 z" opacity="0.1"/></g><g><rect width="46" height="46" x="-47" y="1" rx="4" transform="matrix(0,-1,1,0,0,0)" fill="url(#linearGradient3764)" fill-opacity="1"/></g><g><g clip-path="url(#clipPath-267021011)"><g opacity="0.1"><!-- color: #6b7bda --><g><path d="m 16.617 27 l 1.73 1 l 0.367 1.367 l -3.465 -2 m 1.367 -0.367" fill="#000"/><path d="m 16.617 27 l -0.5 0.867 l -1.867 1.23 l 3.465 2 l 0.133 -2.23 l 0.5 -0.867 m -1.73 -1" fill="#000"/><path d="m 15.617 28.734 l 1.73 1 l -2.867 2.965 m 1.137 -3.965" fill="#000"/><path d="m 34 16 c 0 1.656 -1.344 3 -3 3 c -1.656 0 -3 -1.344 -3 -3 c 0 -1.656 1.344 -3 3 -3 c 1.656 0 3 1.344 3 3 m 0 0" fill="#000"/><path d="m 25 19 c 1 -2 7 0 5 3 c -4 6 -10 11 -16 16 c 4 -6 9 -11 11 -19 m 0 0" fill="#000"/><path d="m 29 22 c 6 0 6 0 6 5 l -1 0 c 0 -4 0 -4 -5 -4 m 0 -1" fill="#000"/><path d="m 27 25 l -2 3 c 4 0 8 -1 12 -4 c -3 1 -7 2 -10 1 m 0 0" fill="#000"/><path d="m 21 16 c 1 -2 3 -1 2.699 0.523 l -4.699 10.477 l -2 -1 m 4 -10" fill="#000"/></g></g></g></g><g><g clip-path="url(#clipPath-280880321)"><g transform="translate(0,-1)"><!-- color: #6b7bda --><g><path d="m 16.617 27 l 1.73 1 l 0.367 1.367 l -3.465 -2 m 1.367 -0.367" fill="#f9f9f9"/><path d="m 16.617 27 l -0.5 0.867 l -1.867 1.23 l 3.465 2 l 0.133 -2.23 l 0.5 -0.867 m -1.73 -1" fill="#f9f9f9"/><path d="m 15.617 28.734 l 1.73 1 l -2.867 2.965 m 1.137 -3.965" fill="#f9f9f9"/><path d="m 34 16 c 0 1.656 -1.344 3 -3 3 c -1.656 0 -3 -1.344 -3 -3 c 0 -1.656 1.344 -3 3 -3 c 1.656 0 3 1.344 3 3 m 0 0" fill="#f9f9f9"/><path d="m 25 19 c 1 -2 7 0 5 3 c -4 6 -10 11 -16 16 c 4 -6 9 -11 11 -19 m 0 0" fill="#f9f9f9"/><path d="m 29 22 c 6 0 6 0 6 5 l -1 0 c 0 -4 0 -4 -5 -4 m 0 -1" fill="#f9f9f9"/><path d="m 27 25 l -2 3 c 4 0 8 -1 12 -4 c -3 1 -7 2 -10 1 m 0 0" fill="#f9f9f9"/><path d="m 21 16 c 1 -2 3 -1 2.699 0.523 l -4.699 10.477 l -2 -1 m 4 -10" fill="#f9f9f9"/></g></g></g></g><g><g transform="translate(0,-1004.3622)"><path d="m 1 1043.36 0 4 c 0 2.216 1.784 4 4 4 l 38 0 c 2.216 0 4 -1.784 4 -4 l 0 -4 c 0 2.216 -1.784 4 -4 4 l -38 0 c -2.216 0 -4 -1.784 -4 -4 z" opacity="0.1"/></g></g></svg>
